gdscript/src/main/resources/icons/godot_editor/NonFavorite.svg

<svg height="16" viewBox="0 0 16 16" width="16" xmlns="http://www.w3.org/2000/svg"><path d="m8 1.7246-2.375 4.0977-4.625 1.0977 3.2363 3.4063-.35938 4.6738 4.1387-1.9766 4.1582 1.9414-.39648-4.6523 3.2227-3.3926-4.625-1.0977-2.375-4.0977zm0 2.2754 1.6582 2.7773 3.2324.74414-2.25 2.3008.27539 3.1543-2.9043-1.3164-2.8926 1.3398.25195-3.168-2.2617-2.3105 3.2324-.74414 1.6582-2.7773z" fill="#e0e0e0"/></svg>

<svg height="16" viewBox="0 0 16 16" width="16" xmlns="http://www.w3.org/2000/svg"><path d="M8 1.725 5.625 5.822 1 6.92l3.236 3.406L3.876 15l4.14-1.977 4.158 1.942-.397-4.652L15 6.92l-4.625-1.098L8 1.725zM8 4l1.658 2.777 3.233.744-2.25 2.301.275 3.155-2.904-1.317L5.119 13l.252-3.168-2.262-2.31 3.233-.745L8 4z" fill="#e0e0e0"/></svg>
